src/pos-icons/lungs.svg

<svg height="24" viewBox="0 0 24 24" width="24" xmlns="http://www.w3.org/2000/svg"><path d="m15.47 3.11c-.47-.26-1.1-.06-1.36.43-.07.14-.11.3-.11.46v2.59l-.71-.71c-.19-.19-.29-.44-.29-.7v-4.18h-2v4.17c0 .27-.1.52-.29.71l-.71.71v-2.59c0-.56-.46-1-1-1-.17 0-.33.04-.47.11-3.81 1.89-6.53 6.86-6.53 12.66 0 1.9.33 3.78 1 5.55.19.53.76.81 1.29.62.05-.02.1-.04.15-.07l5.06-2.8c.31-.17.5-.51.5-.88v-8.78l1.3-1.29c.39-.39 1.02-.39 1.41 0l1.29 1.3v8.78c0 .36.21.7.5.88l5.08 2.8c.49.26 1.1.08 1.36-.42.02-.04.06-.09.06-.14.67-1.77 1-3.65 1-5.55 0-5.8-2.71-10.77-6.53-12.66z"/></svg>

<?xml version="1.0" encoding="UTF-8"?><!DOCTYPE svg PUBLIC "-//W3C//DTD SVG 1.1//EN" "http://www.w3.org/Graphics/SVG/1.1/DTD/svg11.dtd"><svg xmlns="http://www.w3.org/2000/svg" xmlns:xlink="http://www.w3.org/1999/xlink" version="1.1" id="mdi-lungs" width="24" height="24" viewBox="0 0 24 24"><path d="M15.47 3.11C15 2.85 14.37 3.05 14.11 3.54C14.04 3.68 14 3.84 14 4V6.59L13.29 5.88C13.1 5.69 13 5.44 13 5.18V1H11V5.17C11 5.44 10.9 5.69 10.71 5.88L10 6.59V4C10 3.44 9.54 3 9 3C8.83 3 8.67 3.04 8.53 3.11C4.72 5 2 9.97 2 15.77C2 17.67 2.33 19.55 3 21.32C3.19 21.85 3.76 22.13 4.29 21.94C4.34 21.92 4.39 21.9 4.44 21.87L9.5 19.07C9.81 18.9 10 18.56 10 18.19V9.41L11.3 8.12C11.69 7.73 12.32 7.73 12.71 8.12L14 9.42V18.2C14 18.56 14.21 18.9 14.5 19.08L19.58 21.88C20.07 22.14 20.68 21.96 20.94 21.46C20.96 21.42 21 21.37 21 21.32C21.67 19.55 22 17.67 22 15.77C22 9.97 19.29 5 15.47 3.11Z" /></svg>
